lib/nrk-some-tommelopp.svg

<svg viewBox="0 0 24 24" xmlns="http://www.w3.org/2000/svg">
<path fill-rule="evenodd" clip-rule="evenodd" d="M14 4V7H21.694C22.9111 7 23.846 8.07798 23.6739 9.28284L22.2453 19.2828C22.1046 20.2681 21.2607 21 20.2654 21H8V4C8 2.89543 8.89543 2 10 2H12C13.1046 2 14 2.89543 14 4ZM20.2654 19H10V4H12V9H21.694L20.2654 19ZM1 6H6V23H1V21H4V8H1V6Z"/>
</svg>

<svg viewBox="0 0 24 24" xmlns="http://www.w3.org/2000/svg"><path fill="currentColor" fill-rule="evenodd" d="M14 4v3h7.694a2 2 0 011.98 2.283l-1.429 10A2 2 0 0120.265 21H8V4a2 2 0 012-2h2a2 2 0 012 2zm6.265 15H10V4h2v5h9.694l-1.429 10zM1 6h5v17H1v-2h3V8H1V6z"/></svg>
